X:125
T:I'm a top of Tom Tickler's Ground
M:6/8
L:1/8
B:Thompson's Compleat Collection of 200 Favourite Country Dances, vol. 1 (London, 1757)
Z:Transcribed and edited by Flynn Titford-Mock, 2007
Z:abc's:AK/Fiddler's Companion
K:G
B|(GB)B "tr"B2d|(e/f/g)e dBG|(ce)e "tr"e2g|(f/g/a)f gdB|(GB)B "tr"B2d|(e/f/g)e dBG|(ce)c (Bd)B|A(gf) g2:|
|:(e/f/)|gdB gdB|gdB AFD|g(e/f/g) def|gbg afd|gdB gdB|gdB AFD|EFG DcB|AGF G2:|

